X: 14903
T: Gates Of Edinburgh, The
R: barndance
M: 4/4
K: Fmajor
CDFG A2fd|cAGF D2FD|F2f2 c2AG|F2D2 D2F2|
A2Ac A2Ac|fcAF G2FD|F2f2 c2AG|F2D2 D2c2|
fefg fagf|gfga gbag|fefg fagf|gfed c2fg|
agfa gfeg|fedc f3g|agfe dcAG|F2D2 D4||

